docs/assets/c00512cc37a81d43b54ff80dfc81a11e.svg

<?xml version="1.0" encoding="utf-8"?>
<svg version="1.1" xmlns="http://www.w3.org/2000/svg" xmlns:xlink="http://www.w3.org/1999/xlink" height="614.1120649817668" width="851.8896602126906">
  <defs>
    <path id="path-1" opacity="1" fill-rule="evenodd" d="M67.8900379248397,280.3168258549929 L777.9996222878509,280.3168258549929 C815.3470470612008,280.3168258549929 845.6684175115183,310.63819630531043 845.6684175115183,347.9856210786603 C845.6684175115183,385.3330458520102 815.3470470612008,415.6544163023277 777.9996222878509,415.6544163023277 L67.8900379248397,415.6544163023277 C30.54261315148984,415.6544163023277 0.22124270117230083,385.3330458520102 0.22124270117228662,347.9856210786603 "/>
    <linearGradient id="linearGradient-2" x1="0.16" y1="0.6" x2="0.67" y2="0.27">
      <stop offset="0" stop-color="rgb(144,48,217)" stop-opacity="0.77"/>
      <stop offset="1" stop-color="rgb(236,14,141)" stop-opacity="0.67"/>
    </linearGradient>
    <path id="path-3" opacity="1" fill-rule="evenodd" d="M252.74574389878757,121.01825395223128 L791.262423449688,121.01825395223128 C820.5753666439191,121.01825395223125 844.3737574292359,144.81664473754796 844.3737574292359,174.12958793177913 C844.3737574292359,203.4425311260103 820.5753666439191,227.240921911327 791.262423449688,227.24092191132698 L252.74574389878757,227.24092191132698 C223.4328007045564,227.24092191132698 199.63440991923972,203.4425311260103 199.63440991923972,174.12958793177913 "/>
    <linearGradient id="linearGradient-4" x1="0.16" y1="0.6" x2="0.67" y2="0.27">
      <stop offset="0" stop-color="rgb(144,48,217)" stop-opacity="1"/>
      <stop offset="1" stop-color="rgb(208,37,186)" stop-opacity="1"/>
    </linearGradient>
    <path id="path-5" opacity="1" fill-rule="evenodd" d="M198.5425032935089,425.7642136003908 L681.9116710935693,425.7642136003908 C709.6684815483654,425.7642136003908 732.2034899840655,448.299222036091 732.2034899840655,476.05603249088705 C732.2034903976743,503.8128421962766 709.6684822977719,526.3478509677745 681.9116718429759,526.3478513813833 L198.5425032935089,526.3478513813833 C170.78569283871286,526.3478513813833 148.25068440301266,503.8128429456831 148.25068440301266,476.05603249088705 "/>
    <linearGradient id="linearGradient-6" x1="0.16" y1="0.6" x2="0.67" y2="0.27">
      <stop offset="0" stop-color="rgb(144,48,217)" stop-opacity="1"/>
      <stop offset="1" stop-color="rgb(208,37,186)" stop-opacity="1"/>
    </linearGradient>
    <path id="path-7" opacity="1" fill-rule="evenodd" d="M73.8900379248397,253.31682585498655 L783.9996222878509,253.31682585498655 C821.3470470612008,253.31682585498655 851.6684175115183,283.63819630530406 851.6684175115183,320.98562107865394 C851.6684175115183,358.3330458520038 821.3470470612008,388.65441630232135 783.9996222878509,388.65441630232135 L73.8900379248397,388.65441630232135 C36.54261315148984,388.65441630232135 6.221242701172301,358.3330458520038 6.221242701172287,320.98562107865394 "/>
    <linearGradient id="linearGradient-8" x1="0.16" y1="0.6" x2="0.67" y2="0.27">
      <stop offset="0" stop-color="rgb(144,48,217)" stop-opacity="0.77"/>
      <stop offset="1" stop-color="rgb(236,14,141)" stop-opacity="0.67"/>
    </linearGradient>
    <path id="path-9" opacity="1" fill-rule="evenodd" d="M257.74574389878757,97.01825395223125 L796.262423449688,97.01825395223125 C825.5753666439191,97.01825395223122 849.3737574292359,120.81664473754793 849.3737574292359,150.1295879317791 C849.3737574292359,179.44253112601027 825.5753666439191,203.24092191132698 796.262423449688,203.24092191132695 L257.74574389878757,203.24092191132695 C228.4328007045564,203.24092191132695 204.63440991923972,179.44253112601027 204.63440991923972,150.1295879317791 "/>
    <linearGradient id="linearGradient-10" x1="0.16" y1="0.6" x2="0.67" y2="0.27">
      <stop offset="0" stop-color="rgb(144,48,217)" stop-opacity="1"/>
      <stop offset="1" stop-color="rgb(208,37,186)" stop-opacity="1"/>
    </linearGradient>
    <path id="path-11" opacity="1" fill-rule="evenodd" d="M191.5425032935089,400.76421360038444 L674.9116710935693,400.76421360038444 C702.6684815483654,400.76421360038444 725.2034899840655,423.29922203608464 725.2034899840655,451.0560324908807 C725.2034903976743,478.81284219627025 702.6684822977719,501.3478509677682 674.9116718429759,501.3478513813769 L191.5425032935089,501.3478513813769 C163.78569283871286,501.3478513813769 141.25068440301266,478.8128429456767 141.25068440301266,451.0560324908807 "/>
    <linearGradient id="linearGradient-12" x1="0.16" y1="0.6" x2="0.67" y2="0.27">
      <stop offset="0" stop-color="rgb(144,48,217)" stop-opacity="1"/>
      <stop offset="1" stop-color="rgb(208,37,186)" stop-opacity="1"/>
    </linearGradient>
  </defs>
  <g opacity="1">
    <g opacity="0.32">
      <g transform="translate(422.9448301063453, 347.9856210786603) rotate(342.00012228694516) translate(-422.9448301063453, -347.9856210786603)" opacity="0.48">
        <use xlink:href="#path-1" fill="url(#linearGradient-2)"/>
      </g>
      <g transform="translate(522.0040836742378, 174.12958793177913) rotate(342.00012228694516) translate(-522.0040836742378, -174.12958793177913)" opacity="0.48">
        <use xlink:href="#path-3" fill="url(#linearGradient-4)"/>
      </g>
      <g transform="translate(440.2270871935391, 476.05603249088705) rotate(342.00012228694516) translate(-440.2270871935391, -476.05603249088705)" opacity="0.48">
        <use xlink:href="#path-5" fill="url(#linearGradient-6)"/>
      </g>
    </g>
    <g opacity="1">
      <g transform="translate(428.9448301063453, 320.98562107865394) rotate(342.00012228694516) translate(-428.9448301063453, -320.98562107865394)" opacity="1">
        <use xlink:href="#path-7" fill="url(#linearGradient-8)"/>
      </g>
      <g transform="translate(527.0040836742378, 150.1295879317791) rotate(342.00012228694516) translate(-527.0040836742378, -150.1295879317791)" opacity="1">
        <use xlink:href="#path-9" fill="url(#linearGradient-10)"/>
      </g>
      <g transform="translate(433.2270871935391, 451.0560324908807) rotate(342.00012228694516) translate(-433.2270871935391, -451.0560324908807)" opacity="1">
        <use xlink:href="#path-11" fill="url(#linearGradient-12)"/>
      </g>
    </g>
  </g>
</svg>

<svg xmlns="http://www.w3.org/2000/svg" xmlns:xlink="http://www.w3.org/1999/xlink" height="614.112" width="851.89"><defs><path id="a" opacity="1" fill-rule="evenodd" d="M67.89 280.317H778c37.347 0 67.668 30.321 67.668 67.669 0 37.347-30.321 67.668-67.668 67.668H67.89c-37.347 0-67.669-30.321-67.669-67.668"/><linearGradient id="b" x1=".16" y1=".6" x2=".67" y2=".27"><stop offset="0" stop-color="#9030D9" stop-opacity=".77"/><stop offset="1" stop-color="#EC0E8D" stop-opacity=".67"/></linearGradient><path id="c" opacity="1" fill-rule="evenodd" d="M252.746 121.018h538.516c29.313 0 53.112 23.799 53.112 53.112 0 29.313-23.799 53.11-53.112 53.11H252.746c-29.313 0-53.112-23.797-53.112-53.11"/><linearGradient id="d" x1=".16" y1=".6" x2=".67" y2=".27"><stop offset="0" stop-color="#9030D9"/><stop offset="1" stop-color="#D025BA"/></linearGradient><path id="e" opacity="1" fill-rule="evenodd" d="M198.543 425.764h483.369c27.756 0 50.291 22.535 50.291 50.292s-22.535 50.292-50.291 50.292h-483.37c-27.756 0-50.291-22.535-50.291-50.292"/><linearGradient id="f" x1=".16" y1=".6" x2=".67" y2=".27"><stop offset="0" stop-color="#9030D9"/><stop offset="1" stop-color="#D025BA"/></linearGradient><path id="g" opacity="1" fill-rule="evenodd" d="M73.89 253.317H784c37.347 0 67.668 30.321 67.668 67.669 0 37.347-30.321 67.668-67.668 67.668H73.89c-37.347 0-67.669-30.321-67.669-67.668"/><linearGradient id="h" x1=".16" y1=".6" x2=".67" y2=".27"><stop offset="0" stop-color="#9030D9" stop-opacity=".77"/><stop offset="1" stop-color="#EC0E8D" stop-opacity=".67"/></linearGradient><path id="i" opacity="1" fill-rule="evenodd" d="M257.746 97.018h538.516c29.313 0 53.112 23.799 53.112 53.112 0 29.313-23.799 53.11-53.112 53.11H257.746c-29.313 0-53.112-23.797-53.112-53.11"/><linearGradient id="j" x1=".16" y1=".6" x2=".67" y2=".27"><stop offset="0" stop-color="#9030D9"/><stop offset="1" stop-color="#D025BA"/></linearGradient><path id="k" opacity="1" fill-rule="evenodd" d="M191.543 400.764h483.369c27.756 0 50.291 22.535 50.291 50.292s-22.535 50.292-50.291 50.292h-483.37c-27.756 0-50.291-22.535-50.291-50.292"/><linearGradient id="l" x1=".16" y1=".6" x2=".67" y2=".27"><stop offset="0" stop-color="#9030D9"/><stop offset="1" stop-color="#D025BA"/></linearGradient></defs><g opacity=".32"><use xlink:href="#a" fill="url(#b)" transform="rotate(-18 422.945 347.986)" opacity=".48"/><use xlink:href="#c" fill="url(#d)" transform="rotate(-18 522.004 174.13)" opacity=".48"/><use xlink:href="#e" fill="url(#f)" transform="rotate(-18 440.227 476.056)" opacity=".48"/></g><use xlink:href="#g" fill="url(#h)" transform="rotate(-18 428.945 320.986)"/><use xlink:href="#i" fill="url(#j)" transform="rotate(-18 527.004 150.13)"/><use xlink:href="#k" fill="url(#l)" transform="rotate(-18 433.227 451.056)"/></svg>
